X:1
T: The Pentland Jig #2
C:
R:Jig
Q:180
K:D
M:6/8
L:1/16
|:F2|B4B2 B4F2|B2c2d2 d2c2B2|A4A2 A4E2|A2B2c2 c2B2A2|
B4G2 G4B2|A4F2 F4A2|^G4B2 E2G2B2|c2B2A2 G2F2G2|
A6 A2F2G2|A4f2 f4e2|d2c2e2 d2c2B2|A4F2 F4A2|
B4G2 d2c2B2|A2d2f2 a4A2|B2G2d2 c2A2e2|d6d4:|
